X:1
T:Title
%%score 1 { 2 | 3 }
L:1/8
M:4/4
K:G
V:1 treble nm="Grand Piano, Piano"
V:2 bass nm="Grand Piano, Piano"
V:3 bass 
V:1
 z4 z2[Q:1/4=100] [DG]2 | [DG]2 [DF]2 [B,G]2 [DG]2 | [EA]2 [DA]2 [DB]2 [DG]2 | %3
w: 1.~All~|praise~ to~ You,~ my~|God,~ this~ night,~ For~|
 [Ec]2 [Fc]2 [GB]2 [GB]2 |[M:3/4] [EA]2 [DA]2 [DG]2 |[M:1/4] [Gd]2 | %6
w: all~ the~ bles sings~|of~ the~ light.~|Keep~|
[M:4/4] [Ec]2 [DA]2 [DB]2 [DB]2 | [EA]2 [FA]2 G2 D2 | E2 [DF]2 [B,G]2 [DB]2 | %9
w: me,~ O~ keep~ me,~|King~ of~ kings,~ Be|neath~ the~ shel ter~|
[M:3/4] [EA]2 [DA]2 [B,G]2 |] %10
w: of~ Your~ wings.~|
V:2
 z4 z2 B,2 | A,2 A,2 G,2 G,2 | G,2 F,2 G,2 G,2 | A,2[K:treble] D2 D2 D2 | %4
[M:3/4] C2 C2[K:bass] B,2 |[M:1/4] B,2 |[M:4/4] A,2 A,2 G,2 G,2 | C2 A,2 B,2 G,2 | %8
 A,2 A,2 G,2 G,2 |[M:3/4] A,2 F,2 G,2 |] %10
V:3
 z4 z2 G,,2 | D,2 D,2 E,2 B,,2 | C,2 D,2 G,,2 B,,2 | A,,2 A,,2 G,,2 G,2 |[M:3/4] G,2 F,2 G,2 | %5
[M:1/4] G,2 |[M:4/4] z2 F,2 z4 | C,2 D,2 G,,2 B,,2 | C,2 D,2 E,2 B,,2 |[M:3/4] C,2 D,2 G,,2 |] %10

